client/src/assets/icons/flat-color-icons_google.svg

<svg width="40" height="40" viewBox="0 0 40 40" fill="none" xmlns="http://www.w3.org/2000/svg">
<path d="M36.3425 16.7358H35V16.6666H20V23.3333H29.4192C28.045 27.2141 24.3525 29.9999 20 29.9999C14.4775 29.9999 9.99999 25.5224 9.99999 19.9999C9.99999 14.4774 14.4775 9.99992 20 9.99992C22.5492 9.99992 24.8683 10.9616 26.6342 12.5324L31.3483 7.81825C28.3717 5.04409 24.39 3.33325 20 3.33325C10.7958 3.33325 3.33333 10.7958 3.33333 19.9999C3.33333 29.2041 10.7958 36.6666 20 36.6666C29.2042 36.6666 36.6667 29.2041 36.6667 19.9999C36.6667 18.8824 36.5517 17.7916 36.3425 16.7358Z" fill="#FFC107"/>
<path d="M5.255 12.2424L10.7308 16.2583C12.2125 12.5899 15.8008 9.99992 20 9.99992C22.5492 9.99992 24.8683 10.9616 26.6342 12.5324L31.3483 7.81825C28.3717 5.04409 24.39 3.33325 20 3.33325C13.5983 3.33325 8.04667 6.94742 5.255 12.2424Z" fill="#FF3D00"/>
<path d="M20 36.6668C24.305 36.6668 28.2167 35.0192 31.1742 32.3401L26.0158 27.9751C24.2863 29.2904 22.1729 30.0018 20 30.0001C15.665 30.0001 11.9842 27.2359 10.5975 23.3784L5.16251 27.5659C7.92084 32.9634 13.5225 36.6668 20 36.6668Z" fill="#4CAF50"/>
<path d="M36.3425 16.7359H35V16.6667H20V23.3334H29.4192C28.7618 25.1804 27.5778 26.7944 26.0133 27.9759L26.0158 27.9742L31.1742 32.3392C30.8092 32.6709 36.6667 28.3334 36.6667 20.0001C36.6667 18.8826 36.5517 17.7917 36.3425 16.7359Z" fill="#1976D2"/>
</svg>

<svg xmlns="http://www.w3.org/2000/svg" width="40" height="40" fill="none" viewBox="0 0 40 40">
  <path fill="#FFC107" d="M36.343 16.736H35v-.07H20v6.667h9.42C28.044 27.214 24.351 30 20 30c-5.523 0-10-4.478-10-10 0-5.523 4.477-10 10-10 2.55 0 4.868.962 6.634 2.532l4.714-4.714C28.372 5.044 24.39 3.333 20 3.333 10.796 3.333 3.333 10.796 3.333 20S10.796 36.667 20 36.667 36.667 29.204 36.667 20c0-1.118-.115-2.208-.325-3.264Z"/>
  <path fill="#FF3D00" d="m5.255 12.242 5.476 4.016C12.213 12.59 15.8 10 20 10c2.55 0 4.868.962 6.634 2.532l4.714-4.714C28.372 5.044 24.39 3.333 20 3.333c-6.402 0-11.953 3.614-14.745 8.91Z"/>
  <path fill="#4CAF50" d="M20 36.667c4.305 0 8.217-1.648 11.174-4.327l-5.158-4.365A9.925 9.925 0 0 1 20 30c-4.335 0-8.016-2.764-9.402-6.622l-5.435 4.188c2.758 5.397 8.36 9.1 14.837 9.1Z"/>
  <path fill="#1976D2" d="M36.343 16.736H35v-.07H20v6.667h9.42a10.034 10.034 0 0 1-3.407 4.643l.003-.002 5.158 4.365c-.365.332 5.493-4.006 5.493-12.339a16.72 16.72 0 0 0-.325-3.264Z"/>
</svg>
